X: 13816
T: Four Leafed Shamrock, The
R: reel
M: 4/4
K: Dmajor
e|fd~d2 edBc|dfec dBAF|DEFB ABdf|~e2df edBd|
fd~d2 edBc|dfec dBAF|DEFB ABdf|edef d3:|
|:B|Addc defa|bfaf efdB|BAFB ABdf|eB~B2 egfe|
dBAB defa|bfaf edBA|DEFB ABdf|edef d3:|

